actions/16/view-calendar-week.svg

<svg xmlns="http://www.w3.org/2000/svg" viewBox="0 0 16 16">
  <defs id="defs3051">
    <style type="text/css" id="current-color-scheme">
      .ColorScheme-Text {
        color:#eff0f1;
      }
      .ColorScheme-PositiveText {
        color:#27ae60;
      }
      </style>
  </defs>
 <path 
     style="fill:currentColor;fill-opacity:1;stroke:none" 
     d="m2 2v12h12v-12h-2v2h-2v-2h-4v2h-2v-2h-2m1 3h10v8h-10v-8m1 1v2h2v-2h-2m3 0v2h2v-2h-2m3 0v2h2v-2h-2" 
     class="ColorScheme-Text"/>
 <path 
     d="m4 9v2h2v-2zm3 0v2h2v-2zm3 0v2h2v-2z"
       style="fill:currentColor;fill-opacity:1;stroke:none" 
     class="ColorScheme-PositiveText"
   />
</svg>

<svg xmlns="http://www.w3.org/2000/svg" viewBox="0 0 16 16">
  <defs id="defs3051">
    <style type="text/css" id="current-color-scheme">.ColorScheme-Text {color:#fcfcfc;}.ColorScheme-PositiveText {color:#27ae60;}</style>
  </defs>
 <path 
     style="fill:currentColor;fill-opacity:1;stroke:none" 
     d="m 2,2 v 10 c 0,0 0,2 2,2 2,0 6,0 8,0 2,0 2,-2 2,-2 V 2 H 12 V 4 H 10 V 2 H 6 V 4 H 4 V 2 H 2 m 1,3 h 10 v 7 c 0,0 0,1 -1,1 -1,0 -7,0 -8,0 C 3,13 3,12 3,12 V 5 M 4,6 V 8 H 6 V 6 H 4 M 7,6 V 8 H 9 V 6 H 7 m 3,0 v 2 h 2 V 6 h -2"
     class="ColorScheme-Text"/>
 <path 
     d="m4 9v2h2v-2zm3 0v2h2v-2zm3 0v2h2v-2z"
       style="fill:currentColor;fill-opacity:1;stroke:none" 
     class="ColorScheme-PositiveText"
   />
</svg>
